X: 493
T: Speed the Plough
%R: hornpipe
B: "Preston's Twenty Four Country Dances for the Year 1803", Tho. Preston, ed. p.207 #1
F: http://archive.org/details/Prestons24CountryDancesForTheYear1805
F: http://folkopedia.efdss.org/wiki/File:Preston_24_1803.PDF
Z: 2011,2014 John Chambers <jc:trillian.mit.edu>
M: C
L: 1/8
K: A
|:\
A>AA>c e>fe>c | e>ae>c e>fe>c |\
d>ed>B c>dc>A | F>B {c}B>A G>B B2 |
A>AA>c e>fe>c | e>ae>c e>fe>c |\
d>ec>d B>cA>B | F>AG>B A>A A2 :|
|:\
a>aa>A a>Ae>A | a>Ag>A f>Be>A |\
d>dd>B c>cc>A | B>FB>A G>BB>e |
c>Ae>A a>ce>A | f>dB>f e>cA>e |\
d>ec>d B>cA>B | F>AG>B A>AA2 :|
% - - - - - - - - - - - - - - - - - - - - - - - - -
%%begintext align
%% Cast off 2 Cu. & back again, hands across &
%% back again, lead down the middle & up again,
%% foot it with your Partner & hands 6 round.
%%endtext

%%sep 1 1 500
%%sep 1 1 500
